svg/Frame-1261156457.svg

<svg width="49" height="74" viewBox="0 0 49 74" fill="none" xmlns="http://www.w3.org/2000/svg"><rect width="49" height="74" fill="#DADADA"/><mask id="path-2-inside-1_2483_15959" fill="white"><path d="M548 91.2002L-892 91.2001L-892 -17.7999L548 -17.7998L548 91.2002Z"/></mask><path d="M548 91.2002L-892 91.2001L-892 -17.7999L548 -17.7998L548 91.2002Z" fill="white"/><path d="M7.8101 67.1162H18.3461V67.9562H7.8101V67.1162ZM12.9221 60.6962H13.7861V67.5002H12.9221V60.6962ZM9.5741 62.5562H10.4261V67.4762H9.5741V62.5562ZM13.3781 63.3482H17.2181V64.1882H13.3781V63.3482ZM7.6301 61.8482C8.7341 61.2322 9.7181 60.5522 10.5821 59.8082C11.4861 59.0482 12.2141 58.2682 12.7661 57.4682H13.5701C14.2021 58.3802 15.0021 59.2322 15.9701 60.0242C16.7781 60.7042 17.6901 61.3202 18.7061 61.8722L18.1781 62.6762C17.1701 62.1162 16.2221 61.4482 15.3341 60.6722C14.4141 59.8802 13.6941 59.1202 13.1741 58.3922C12.6621 59.0962 11.9421 59.8442 11.0141 60.6362C10.5821 61.0122 10.1381 61.3562 9.6821 61.6682C9.2341 61.9802 8.7341 62.2962 8.1821 62.6162L7.6301 61.8482ZM23.198 57.5522H24.11V67.4642H23.198V57.5522ZM25.91 57.5522H26.81V67.4642H25.91V57.5522ZM20.882 59.5442C21.21 60.1362 21.594 60.9442 22.034 61.9682C22.514 63.0642 22.83 63.9122 22.982 64.5122L22.118 64.8842C21.966 64.2922 21.658 63.4522 21.194 62.3642C20.786 61.3562 20.41 60.5442 20.066 59.9282L20.882 59.5442ZM27.014 64.5122C27.382 63.8722 27.762 63.0922 28.154 62.1722C28.562 61.2522 28.898 60.3762 29.162 59.5442L30.05 59.8322C29.698 60.8002 29.346 61.6842 28.994 62.4842C28.626 63.3562 28.234 64.1762 27.818 64.9442L27.014 64.5122ZM19.718 67.0082H30.29V67.8602H19.718V67.0082ZM32.718 60.8402H36.198V61.6082H32.718V60.8402ZM34.458 57.4562H35.25V61.1522H34.458V57.4562ZM35.142 67.7282C35.622 66.9042 35.966 66.0522 36.174 65.1722C36.294 64.6682 36.378 64.1322 36.426 63.5642C36.482 62.9962 36.514 62.3602 36.522 61.6562V58.4882C37.426 58.4162 38.342 58.3122 39.27 58.1762C40.198 58.0322 40.998 57.8762 41.67 57.7082L41.886 58.5362C41.214 58.6962 40.454 58.8402 39.606 58.9682C38.766 59.0962 38.002 59.1882 37.314 59.2442V61.7402C37.306 62.4362 37.278 63.0682 37.23 63.6362C37.182 64.2042 37.106 64.7362 37.002 65.2322C36.882 65.7682 36.73 66.2762 36.546 66.7562C36.362 67.2282 36.134 67.6882 35.862 68.1362L35.142 67.7282ZM36.306 67.8722C37.074 67.4242 37.738 66.9402 38.298 66.4202C38.858 65.9002 39.326 65.3362 39.702 64.7282C40.254 63.8002 40.618 62.7602 40.794 61.6082H36.906V60.8402H41.61V61.6202C41.506 62.2842 41.354 62.9002 41.154 63.4682C40.962 64.0362 40.718 64.5762 40.422 65.0882C40.038 65.7442 39.55 66.3562 38.958 66.9242C38.374 67.4842 37.662 68.0282 36.822 68.5562L36.306 67.8722ZM31.302 68.2202C31.502 67.8282 31.67 67.4402 31.806 67.0562C31.942 66.6642 32.05 66.2482 32.13 65.8082C32.21 65.3522 32.266 64.8482 32.298 64.2962C32.33 63.7362 32.346 63.0882 32.346 62.3522V57.6722H33.162V62.6162C33.154 63.3682 33.134 64.0202 33.102 64.5722C33.07 65.1162 33.014 65.6242 32.934 66.0962C32.854 66.5602 32.746 66.9962 32.61 67.4042C32.474 67.8202 32.306 68.2242 32.106 68.6162L31.302 68.2202ZM32.718 63.2162H35.238V68.3402H34.422V63.9962H32.718V63.2162ZM38.31 61.3562C38.43 62.1082 38.602 62.7962 38.826 63.4202C39.05 64.0442 39.334 64.6242 39.678 65.1602C40.342 66.1842 41.246 67.0682 42.39 67.8122L41.898 68.5082C40.81 67.7642 39.938 66.9202 39.282 65.9762C38.826 65.3282 38.458 64.6242 38.178 63.8642C37.898 63.0962 37.69 62.2602 37.554 61.3562H38.31Z" fill="black"/><rect x="0.400008" y="0.100195" width="48.2" height="48.2" rx="10.1" fill="#F6F6F6"/><rect x="0.400008" y="0.100195" width="48.2" height="48.2" rx="10.1" stroke="#D4D4D8" stroke-width="0.2"/><g filter="url(#filter0_dii_2483_15959)"><path d="M33.3184 20.636H16.8206C16.2252 20.636 15.7388 21.1209 15.7388 21.7183V29.0189C15.7388 29.6163 16.2225 30.1013 16.8206 30.1013H33.3184C33.9137 30.1013 34.3975 29.6163 34.3975 29.0189V21.7183C34.3975 21.1209 33.9137 20.636 33.3184 20.636ZM29.3793 28.3223C27.6623 28.3223 26.2722 26.9265 26.2695 25.2065C26.2695 23.4865 27.6623 22.0907 29.3793 22.0907C31.0963 22.0907 32.4864 23.4865 32.4864 25.2065C32.4864 26.9265 31.0937 28.3223 29.3793 28.3223Z" fill="#919191"/><path d="M37.0498 16.2074H31.5C31.0588 13.7185 28.3743 11.8003 25.1396 11.8003C21.9049 11.8003 19.2204 13.7212 18.7792 16.2074H13.1497C11.9058 16.2074 10.8984 17.2174 10.8984 18.4632V31.9445C10.8984 33.1903 11.9058 34.2003 13.1497 34.2003H37.0472C38.2911 34.2003 39.2984 33.1903 39.2984 31.9445V18.4632C39.2984 17.2174 38.2911 16.2074 37.0472 16.2074H37.0498ZM25.1396 13.9436C27.1118 13.9436 28.8209 14.9241 29.2993 16.2074H20.98C21.4584 14.9241 23.1674 13.9436 25.1396 13.9436ZM37.1296 31.2935C37.1296 32.0249 36.5369 32.6169 35.8086 32.6169H14.3963C13.6653 32.6169 13.0753 32.0249 13.0753 31.2935V19.6608C13.0753 18.9294 13.668 18.3373 14.3963 18.3373H35.8086C36.5395 18.3373 37.1296 18.9294 37.1296 19.6608V31.2935Z" fill="#919191"/></g><defs><filter id="filter0_dii_2483_15959" x="10.4297" y="11.3315" width="30.8047" height="25.2749" filterUnits="userSpaceOnUse" color-interpolation-filters="sRGB"><feFlood flood-opacity="0" result="BackgroundImageFix"/><feColorMatrix in="SourceAlpha" type="matrix" values="0 0 0 0 0 0 0 0 0 0 0 0 0 0 0 0 0 0 127 0" result="hardAlpha"/><feOffset dx="0.9375" dy="1.40625"/><feGaussianBlur stdDeviation="0.5"/><feComposite in2="hardAlpha" operator="out"/><feColorMatrix type="matrix" values="0 0 0 0 0.394602 0 0 0 0 0.394602 0 0 0 0 0.394602 0 0 0 0.08 0"/><feBlend mode="normal" in2="BackgroundImageFix" result="effect1_dropShadow_2483_15959"/><feBlend mode="normal" in="SourceGraphic" in2="effect1_dropShadow_2483_15959" result="shape"/><feColorMatrix in="SourceAlpha" type="matrix" values="0 0 0 0 0 0 0 0 0 0 0 0 0 0 0 0 0 0 127 0" result="hardAlpha"/><feOffset dx="0.5" dy="0.5"/><feGaussianBlur stdDeviation="0.5"/><feComposite in2="hardAlpha" operator="arithmetic" k2="-1" k3="1"/><feColorMatrix type="matrix" values="0 0 0 0 0.109684 0 0 0 0 0.0922738 0 0 0 0 0.0922738 0 0 0 0.1 0"/><feBlend mode="normal" in2="shape" result="effect2_innerShadow_2483_15959"/><feColorMatrix in="SourceAlpha" type="matrix" values="0 0 0 0 0 0 0 0 0 0 0 0 0 0 0 0 0 0 127 0" result="hardAlpha"/><feOffset dx="-0.46875" dy="-0.46875"/><feGaussianBlur stdDeviation="0.5"/><feComposite in2="hardAlpha" operator="arithmetic" k2="-1" k3="1"/><feColorMatrix type="matrix" values="0 0 0 0 0 0 0 0 0 0 0 0 0 0 0 0 0 0 0.05 0"/><feBlend mode="normal" in2="effect2_innerShadow_2483_15959" result="effect3_innerShadow_2483_15959"/></filter></defs></svg>

<svg fill="none" viewBox="0 0 49 74"><path fill="#DADADA" d="M0 0h49v74H0z"/><path fill="white" d="M548 91.2H-892v-109H548z"/><path fill="black" d="M7.81 67.116h10.536v.84H7.81zm5.112-6.42h.864V67.5h-.864zm-3.348 1.86h.852v4.92h-.852zm3.804.792h3.84v.84h-3.84zm-5.748-1.5a17.8 17.8 0 0 0 2.952-2.04q1.356-1.14 2.184-2.34h.804q.948 1.368 2.4 2.556 1.212 1.02 2.736 1.848l-.528.804a16.5 16.5 0 0 1-2.844-2.004q-1.38-1.188-2.16-2.28-.768 1.056-2.16 2.244-.648.564-1.332 1.032-.672.468-1.5.948zm15.568-4.296h.912v9.912h-.912zm2.712 0h.9v9.912h-.9zm-5.028 1.992q.492.888 1.152 2.424.72 1.644.948 2.544l-.864.372q-.228-.888-.924-2.52-.612-1.512-1.128-2.436zm6.132 4.968q.552-.96 1.14-2.34.612-1.38 1.008-2.628l.888.288a44 44 0 0 1-1.056 2.652q-.552 1.308-1.176 2.46zm-7.296 2.496H30.29v.852H19.718zm13-6.168h3.48v.768h-3.48zm1.74-3.384h.792v3.696h-.792zm.684 10.272a9.3 9.3 0 0 0 1.032-2.556q.18-.756.252-1.608a22 22 0 0 0 .096-1.908v-3.168q1.356-.108 2.748-.312 1.392-.216 2.4-.468l.216.828q-1.008.24-2.28.432-1.26.192-2.292.276v2.496a26 26 0 0 1-.084 1.896q-.072.852-.228 1.596-.18.804-.456 1.524a9 9 0 0 1-.684 1.38zm1.164.144a11.2 11.2 0 0 0 1.992-1.452 8.2 8.2 0 0 0 1.404-1.692q.828-1.392 1.092-3.12h-3.888v-.768h4.704v.78q-.156.996-.456 1.848a9 9 0 0 1-.732 1.62 8.5 8.5 0 0 1-1.464 1.836q-.876.84-2.136 1.632zm-5.004.348q.3-.588.504-1.164.204-.588.324-1.248.12-.684.168-1.512.048-.84.048-1.944v-4.68h.816v4.944a42 42 0 0 1-.06 1.956 14 14 0 0 1-.168 1.524q-.12.696-.324 1.308a8.4 8.4 0 0 1-.504 1.212zm1.416-5.004h2.52v5.124h-.816v-4.344h-1.704zm5.592-1.86q.18 1.128.516 2.064t.852 1.74q.996 1.536 2.712 2.652l-.492.696q-1.632-1.116-2.616-2.532a9.2 9.2 0 0 1-1.104-2.112 13 13 0 0 1-.624-2.508z"/><rect width="48.2" height="48.2" x=".4" y=".1" fill="#F6F6F6" rx="10.1"/><rect width="48.2" height="48.2" x=".4" y=".1" stroke="#D4D4D8" stroke-width=".2" rx="10.1"/><g fill="#919191" filter="url(#a)"><path d="M33.318 20.636H16.821c-.596 0-1.082.485-1.082 1.082v7.3c0 .598.483 1.083 1.082 1.083h16.497c.596 0 1.08-.485 1.08-1.082v-7.3c0-.598-.484-1.083-1.08-1.083m-3.939 7.686a3.115 3.115 0 0 1-3.11-3.116 3.114 3.114 0 0 1 3.11-3.115 3.11 3.11 0 0 1 3.107 3.115 3.113 3.113 0 0 1-3.107 3.116"/><path d="M37.05 16.207H31.5c-.441-2.488-3.126-4.407-6.36-4.407s-5.92 1.921-6.36 4.407h-5.63a2.253 2.253 0 0 0-2.252 2.256v13.482A2.253 2.253 0 0 0 13.15 34.2h23.897a2.253 2.253 0 0 0 2.251-2.256v-13.48a2.253 2.253 0 0 0-2.25-2.257zm-11.91-2.263c1.972 0 3.68.98 4.16 2.263h-8.32c.478-1.283 2.187-2.263 4.16-2.263m11.99 17.35c0 .73-.593 1.323-1.321 1.323H14.396a1.32 1.32 0 0 1-1.32-1.323V19.66c0-.732.592-1.324 1.32-1.324H35.81c.73 0 1.32.592 1.32 1.324z"/></g><defs><filter id="a" width="30.805" height="25.275" x="10.43" y="11.332" color-interpolation-filters="sRGB" filterUnits="userSpaceOnUse"><feFlood flood-opacity="0" result="BackgroundImageFix"/><feColorMatrix in="SourceAlpha" result="hardAlpha" type="matrix" values="0 0 0 0 0 0 0 0 0 0 0 0 0 0 0 0 0 0 127 0"/><feOffset dx=".938" dy="1.406"/><feGaussianBlur stdDeviation=".5"/><feComposite in2="hardAlpha" operator="out"/><feColorMatrix type="matrix" values="0 0 0 0 0.394602 0 0 0 0 0.394602 0 0 0 0 0.394602 0 0 0 0.08 0"/><feBlend in2="BackgroundImageFix" mode="normal" result="effect1_dropShadow_2483_15959"/><feBlend in="SourceGraphic" in2="effect1_dropShadow_2483_15959" mode="normal" result="shape"/><feColorMatrix in="SourceAlpha" result="hardAlpha" type="matrix" values="0 0 0 0 0 0 0 0 0 0 0 0 0 0 0 0 0 0 127 0"/><feOffset dx=".5" dy=".5"/><feGaussianBlur stdDeviation=".5"/><feComposite in2="hardAlpha" k2="-1" k3="1" operator="arithmetic"/><feColorMatrix type="matrix" values="0 0 0 0 0.109684 0 0 0 0 0.0922738 0 0 0 0 0.0922738 0 0 0 0.1 0"/><feBlend in2="shape" mode="normal" result="effect2_innerShadow_2483_15959"/><feColorMatrix in="SourceAlpha" result="hardAlpha" type="matrix" values="0 0 0 0 0 0 0 0 0 0 0 0 0 0 0 0 0 0 127 0"/><feOffset dx="-.469" dy="-.469"/><feGaussianBlur stdDeviation=".5"/><feComposite in2="hardAlpha" k2="-1" k3="1" operator="arithmetic"/><feColorMatrix type="matrix" values="0 0 0 0 0 0 0 0 0 0 0 0 0 0 0 0 0 0 0.05 0"/><feBlend in2="effect2_innerShadow_2483_15959" mode="normal" result="effect3_innerShadow_2483_15959"/></filter></defs></svg>
